X: 10812
M: 6/8
L: 1/8
K: G
(D/C/) |\
(G/A/) |\
ded dcB | gag gfg | bag fed | d3 ^cAG ||
[A3F3] AdB | [B3G3] Gge | [^c3E3] ABc | d2d dAG |\
[A3F3] AdB | [B3G3] Gge | [^c3E3] ABc | d2d dB=c |
ded dgb | ded dga | bag fed | d3 =cAB |\
cdc cfa | cdc cfg | agf edc | c3 B2 |]


